MA5T1/95/aimg/acu.svg

<svg clip-rule="evenodd" fill-rule="evenodd" viewBox="0 0 205 205" xmlns="http://www.w3.org/2000/svg"><g fill-rule="nonzero" stroke="#69dfff" stroke-width=".85"><path d="m0 45.523h45.523l-22.761-45.523z" fill="#c8f7ff" transform="matrix(4.16667 0 0 4.16667 7.30172471 7.75258286)"/><g fill="#9ee9ff"><path d="m0-4.771-2.36 4.771h5.095c1.265-3.601-2.735-4.771-2.735-4.771z" transform="matrix(4.16667 0 0 4.16667 17.13506591 197.43606794)"/><path d="m0-4.771 2.36 4.771h-5.095c-1.265-3.601 2.735-4.771 2.735-4.771z" transform="matrix(4.16667 0 0 4.16667 187.16020193 197.43606794)"/><path d="m0 3.719-2.991-6.08-2.96 6.08c3.469 2.361 5.951 0 5.951 0z" transform="matrix(4.16667 0 0 4.16667 114.61847723 17.14425704)"/></g></g></svg>

<?xml version="1.0" encoding="UTF-8" standalone="no"?>
<!DOCTYPE svg PUBLIC "-//W3C//DTD SVG 1.1//EN" "http://www.w3.org/Graphics/SVG/1.1/DTD/svg11.dtd">
<svg width="100%" height="100%" viewBox="0 0 205 205" version="1.1" xmlns="http://www.w3.org/2000/svg" xmlns:xlink="http://www.w3.org/1999/xlink" xml:space="preserve" xmlns:serif="http://www.serif.com/" style="fill-rule:evenodd;clip-rule:evenodd;">
    <g transform="matrix(1,0,0,1,-3830.84,-4725.09)">
        <g transform="matrix(4.16667,0,0,4.16667,2723.92,3587.6)">
            <g transform="matrix(1,0,0,1,267.413,274.858)">
                <path d="M0,45.523L45.523,45.523L22.762,0L0,45.523Z" style="fill:rgb(200,247,255);fill-rule:nonzero;stroke:rgb(105,223,255);stroke-width:0.85px;"/>
            </g>
        </g>
        <g transform="matrix(4.16667,0,0,4.16667,2723.92,3587.6)">
            <g transform="matrix(1,0,0,1,269.773,320.382)">
                <path d="M0,-4.771L-2.36,0L2.735,0C4,-3.601 0,-4.771 0,-4.771Z" style="fill:rgb(158,233,255);fill-rule:nonzero;stroke:rgb(105,223,255);stroke-width:0.85px;"/>
            </g>
        </g>
        <g transform="matrix(4.16667,0,0,4.16667,2723.92,3587.6)">
            <g transform="matrix(1,0,0,1,310.579,320.382)">
                <path d="M0,-4.771L2.36,0L-2.735,0C-4,-3.601 0,-4.771 0,-4.771Z" style="fill:rgb(158,233,255);fill-rule:nonzero;stroke:rgb(105,223,255);stroke-width:0.85px;"/>
            </g>
        </g>
        <g transform="matrix(4.16667,0,0,4.16667,2723.92,3587.6)">
            <g transform="matrix(1,0,0,1,293.169,277.112)">
                <path d="M0,3.719L-2.991,-2.361L-5.951,3.719C-2.482,6.08 0,3.719 0,3.719Z" style="fill:rgb(158,233,255);fill-rule:nonzero;stroke:rgb(105,223,255);stroke-width:0.85px;"/>
            </g>
        </g>
    </g>
</svg>
